!!!!SEGMENT: pl-wtm--r-71-n--007_noskowski-zygmunt--powrot-suita-krakowiakow-andantino-espressivo.krn
!!!cenid: 18xx:2117
!!!COM: Noskowski, Zygmunt
!!!COM-rismID:
!!!CDT: 1846/05/02-1909/07/23
!!!CNT: Polish
!!!OPR: Powrót - Suita krakowiaków
!!!OTL: Andantino espressivo
!!!OMV: 007
!!!PDT: 1894
!!!AGN: Secular
!!!SMS-siglum: PL-Wtm
!!!SMS-shelfmark: R 71/N
!!!SMS-shelfwork: 001-007 M
!!!SMS-variant:
!!!SMS-altvar:
!!!NIFC-rismSourceID: 1001096000
!!!NIFC-islandoraID:
!!!URL-pdf-islandora:
!!!URL-scan:
!!!ONB-nifc: UWAGA: Numeracja krakowiaków zgodna z kolejnością źródłową (I-VIII)
!!!AIN: 1 alto 1 bass 2 piano 1 soprn 2 tenor
!!!key:
**kern	**kern	**dynam	**kern	**kern	**dynam	**kern	**dynam	**kern	**dynam	**kern	**text	**dynam	**kern	**text	**dynam
*part6	*part6	*part6	*part5	*part5	*part5	*part4	*part4	*part3	*part3	*part2	*part2	*part2	*part1	*part1	*part1
*staff8	*staff7	*	*staff6	*staff5	*	*staff4	*	*staff3	*	*staff2	*staff2	*	*staff1	*staff1	*
*group	*group	*group	*group	*group	*group	*group1	*group1	*group1	*group1	*group1	*group1	*group1	*group	*group	*group
*Ipiano	*Ipiano	*	*Ipiano	*Ipiano	*	*Ibass	*	*Itenor	*	*Isoprn&Ialto	*	*	*Itenor	*	*
*I"[Pianoforte 2do]	*I"[Pianoforte 2do]	*	*I"[Pianoforte 1mo]	*I"[Pianoforte Imo]	*	*I"Chór B	*	*I"Chór T	*	*I"Chór S. A	*	*	*I"Tenor Solo	*	*
*clefF4	*clefF4	*	*clefG2	*clefG2	*	*clefF4	*	*clefGv2	*	*clefG2	*	*	*clefG2	*	*
*k[b-e-a-d-g-]	*k[b-e-a-d-g-]	*	*k[b-e-a-d-g-]	*k[b-e-a-d-g-]	*	*k[b-e-a-d-g-]	*	*k[b-e-a-d-g-]	*	*k[b-e-a-d-g-]	*	*	*k[b-e-a-d-g-]	*	*
*D-:	*D-:	*	*D-:	*D-:	*	*D-:	*	*D-:	*	*D-:	*	*	*D-:	*	*
*M2/4	*M2/4	*	*M2/4	*M2/4	*	*M2/4	*	*M2/4	*	*M2/4	*	*	*M2/4	*	*
=1	=1	=1	=1	=1	=1	=1	=1	=1	=1	=1	=1	=1	=1	=1	=1
!	!	!	!	!	!	!	!	!	!	!	!	!	!LO:TX:a:i:t=Andantino espressivo	!	!
!	!LO:TX:a:i:t=Andantino espressivo.	!	!	!LO:TX:a:i:t=Andantino espressivo.	!	!	!	!	!	!	!	!	!LO:TX:a:i:t=VII Solo Tenor (lub Sopran)	!	!
!	!	!	!	!	!	!LO:TX:a:t=P:problem=przez pierwsze 7 taktów partia Basu zapisana na jednej pięciolinii z partią Tenoru	!	!LO:TX:a:t=P:problem=przez pierwsze 7 taktów partia Tenoru zapisana na jednej pięciolinii z partią Basu	!	!	!	!	!	!	!
2r	4r	.	(>8b-'\L	(>8bb-'\L	p	2r	.	2r	.	2r	.	.	2r	.	.
.	.	.	8b-'\	8bb-'\	.	.	.	.	.	.	.	.	.	.	.
.	8r	.	8b-'\	8bb-'\	.	.	.	.	.	.	.	.	.	.	.
.	(>8f 8dn\	p	8b-'\J	8bb-'\J	.	.	.	.	.	.	.	.	.	.	.
=2	=2	=2	=2	=2	=2	=2	=2	=2	=2	=2	=2	=2	=2	=2	=2
2r	8e-L 8c\	.	8b-'\L	8bb-'\L	.	2r	.	2r	.	2r	.	.	2r	.	.
.	8dn 8B-\	.	8b-'\	8bb-'\	.	.	.	.	.	.	.	.	.	.	.
.	8d 8F\	.	8b-'\	8bb-'\	.	.	.	.	.	.	.	.	.	.	.
.	8cJ 8E-\)	.	8b-'\J)	8bb-'\J)	.	.	.	.	.	.	.	.	.	.	.
=3	=3	=3	=3	=3	=3	=3	=3	=3	=3	=3	=3	=3	=3	=3	=3
*	*	*	*tremolo	*tremolo	*	*	*	*	*	*	*	*	*	*	*
!	!	!	!LO:TX:a:t=....	!LO:TX:a:t=....	!	!	!	!	!	!	!	!	!	!	!
!	!	!	!	!LO:TX:b:i:t=segue	!	!	!	!	!	!	!	!	!	!	!
4r	(>4.B- 4.Dn\	<	8b-'\L	8bb-'\L	<	2r	.	2r	.	2r	.	.	2r	.	.
.	.	.	8b-'\	8bb-'\	.	.	.	.	.	.	.	.	.	.	.
4BB- 4BBB-/	.	.	8b-'\	8bb-'\	.	.	.	.	.	.	.	.	.	.	.
.	8dn 8F\)	[	8b-'\J	8bb-'\J	[	.	.	.	.	.	.	.	.	.	.
=4	=4	=4	=4	=4	=4	=4	=4	=4	=4	=4	=4	=4	=4	=4	=4
4r	(>4.f 4.A-\	>	8b-\L	8bb-\L	>	2r	.	2r	.	2r	.	.	2r	.	.
.	.	.	8b-\	8bb-\	.	.	.	.	.	.	.	.	.	.	.
4E- 4EE-/	.	.	8b-\	8bb-\	.	.	.	.	.	.	.	.	.	.	.
.	8e- 8G-\)	]	8b-\J	8bb-\J	]	.	.	.	.	.	.	.	.	.	.
=5	=5	=5	=5	=5	=5	=5	=5	=5	=5	=5	=5	=5	=5	=5	=5
4r	(>4.g- 4.B-\	<	8b-\L	8bb-\L	<	2r	.	2r	.	2r	.	.	2r	.	.
.	.	.	8b-\	8bb-\	.	.	.	.	.	.	.	.	.	.	.
4BB- 4BBB-/	.	.	8b-\	8bb-\	.	.	.	.	.	.	.	.	.	.	.
.	8f 8A-\)	[	8b-\J	8bb-\J	[	.	.	.	.	.	.	.	.	.	.
=6	=6	=6	=6	=6	=6	=6	=6	=6	=6	=6	=6	=6	=6	=6	=6
4r	(>4.g- 4.B-\	>	8b-\L	8bb-\L	>	2r	.	2r	.	2r	.	.	2r	.	.
.	.	.	8b-\	8bb-\	.	.	.	.	.	.	.	.	.	.	.
4EE- 4EEE-/	.	.	8b-\	8bb-\	.	.	.	.	.	.	.	.	.	.	.
.	8e- 8G-\)	]	8b-\J	8bb-\J	]	.	.	.	.	.	.	.	.	.	.
=7	=7	=7	=7	=7	=7	=7	=7	=7	=7	=7	=7	=7	=7	=7	=7
4r	4g- 4B-\	.	8b-\L	8bb-\L	.	2r	.	2r	.	2r	.	.	2r	.	.
.	.	.	8b-\	8bb-\	.	.	.	.	.	.	.	.	.	.	.
4EE- 4EEE-/	(>8g-L 8e-'\	.	8b-\	8bb-\	.	.	.	.	.	.	.	.	.	.	.
.	8g-J 8e-'\)	.	8b-\J	8bb-\J	.	.	.	.	.	.	.	.	.	.	.
!!LO:PB:g=original
=8	=8	=8	=8	=8	=8	=8	=8	=8	=8	=8	=8	=8	=8	=8	=8
4r	4g- 4d-X\	.	8b-\L	8bb-\L	.	2r	.	2r	.	2r	.	.	2r	.	.
.	.	.	8b-\	8bb-\	.	.	.	.	.	.	.	.	.	.	.
4EE- 4EEE-/	(>8g-L 8d-'\	.	8b-\	8bb-\	.	.	.	.	.	.	.	.	.	.	.
.	8g-J 8d-'\)	.	8b-\J	8bb-\J	.	.	.	.	.	.	.	.	.	.	.
*	*	*	*Xtremolo	*Xtremolo	*	*	*	*	*	*	*	*	*	*	*
=9	=9	=9	=9	=9	=9	=9	=9	=9	=9	=9	=9	=9	=9	=9	=9
!	!	!	!	!LO:TX:b:i:t=espressivo	!	!	!	!	!	!	!	!	!	!	!LO:DY:a:rj
!	!	!	!	!	!	!	!	!	!	!	!	!	!LO:TX:a:i:t=espressivo	!	!
2AA- 2AAA-/	8g-L 8d-\	.	(>8b-\L	(>8bb-\L	.	2r	.	2r	.	2r	.	.	8b-\	Rze-	p
.	8g- 8c\	.	8cc\	8ccc\	.	.	.	.	.	.	.	.	8cc\	-cze	.
.	8g- 8d- 8B-\	.	8ee-\	8eee-\	.	.	.	.	.	.	.	.	8ee-\	wo-	.
.	8g-J 8c 8A-\	.	8ff\J)	8fff\J)	.	.	.	.	.	.	.	.	8ff\	-jak	.
=10	=10	=10	=10	=10	=10	=10	=10	=10	=10	=10	=10	=10	=10	=10	=10
4D- 4DD-/	8r	.	(>16ee-\LL	(>16eee-\LL	.	2r	.	2r	.	2r	.	.	16ee-\	do	.
.	.	.	16cc\JJ	16ccc\JJ	.	.	.	.	.	.	.	.	16cc\	dziew-	.
.	4f 4d- 4A-\	.	4dd-\	4ddd-\	.	.	.	.	.	.	.	.	4dd-\	-czy-	.
4F 4FF/	.	.	.	.	.	.	.	.	.	.	.	.	.	.	.
.	8d- 8A-\	.	8a-/)	8aa-\)	.	.	.	.	.	.	.	.	8a-/	-ny,	.
=11	=11	=11	=11	=11	=11	=11	=11	=11	=11	=11	=11	=11	=11	=11	=11
8E-L 8EE-/	8d- 8B- 8G-\	.	(>16b-\LL	(>(16bb-\LL	.	2r	.	2r	.	2r	.	.	16b-\	Do	.
.	.	.	16dd-\J	16ddd-\J	.	.	.	.	.	.	.	.	16dd-\	je-	.
8AA-J 8AAA-/	4e- 4c 4G-\	.	[>8cc\J	[>8ccc\J	.	.	.	.	.	.	.	.	[>8cc\	-dy-	.
4AA- 4AAA-/	.	.	16cc/LL]	16ccc\LL]	.	.	.	.	.	.	.	.	16cc\]	.	.
.	.	.	16g-/	16gg-\	.	.	.	.	.	.	.	.	16g-/	-nej	.
.	8c 8G-\	.	16f/	16ff\	.	.	.	.	.	.	.	.	16f/	do	.
.	.	.	16e-/JJ)	16ee-\JJ)	.	.	.	.	.	.	.	.	16e-/	je-	.
=12	=12	=12	=12	=12	=12	=12	=12	=12	=12	=12	=12	=12	=12	=12	=12
4AA- 4DD-/	8cL 8G-\	.	(>8b-\	(>8bb-\	.	2r	.	2r	.	2r	.	.	8b-\	-dy-	.
.	(>16d-L 16F\	.	4a-/)	4aa-\)	.	.	.	.	.	.	.	.	4a-/	-nej:	.
.	16e-JJ 16G-\	.	.	.	.	.	.	.	.	.	.	.	.	.	.
4r	8fL 8A-\	.	.	.	.	.	.	.	.	.	.	.	.	.	.
.	8d-J 8F\)	.	8a-/)	8aa-\	.	.	.	.	.	.	.	.	8r	.	.
!!LO:LB:g=original
=13	=13	=13	=13	=13	=13	=13	=13	=13	=13	=13	=13	=13	=13	=13	=13
2GG-/	8r	.	8b--\L	8bb--\L	.	2r	.	2r	.	2r	.	.	8b--\	„Za	.
.	4d- 4B-- 4G-\	.	(>8b--\	(>8bb--\	.	.	.	.	.	.	.	.	8b--\	me-	.
.	.	.	(<8qdd-/	(<8qddd-/	<	.	.	.	.	.	.	.	(<8qdd-/	.	.
.	.	<	8cc-X\)	8ccc-X\)	.	.	.	.	.	.	.	.	8cc-X\)	-da-	.
.	8d- 8B-- 8G-\	.	8b--\J)	8bb--\J)	.	.	.	.	.	.	.	.	8b--\	-lik,	.
=14	=14	=14	=14	=14	=14	=14	=14	=14	=14	=14	=14	=14	=14	=14	=14
!	!	!	!	!	!	!	!	!	!	!	!	!	!	!	!LO:HP:a
2EE-/	8e- 8B-- 8G-\	[	(>8ee-^\L	(>8eee-^\L	[	2r	.	2r	.	2r	.	.	8ee-\	coś	<
.	4e- 4B-- 4G-\	.	8dd-^\	8ddd-^\	.	.	.	.	.	.	.	.	8dd-\	mi	[
.	.	.	8cc-X^\	8ccc-X^\	.	.	.	.	.	.	.	.	8cc-X\	da-	.
.	8e- 8B-- 8G-\	.	8b--^\J)	8bb--^\J)	.	.	.	.	.	.	.	.	8b--\	-ła,	.
=15	=15	=15	=15	=15	=15	=15	=15	=15	=15	=15	=15	=15	=15	=15	=15
!	!	!	!	!	!	!	!	!	!	!	!	!	!	!	!LO:DY:a:rj
2AA- 2AAA-/	8r	mf	8a-/L	8aa-\L	mf	2r	.	2r	.	2r	.	.	8a-/	Weź	mf
.	4e- 4c 4G-\	.	8a-/J	8aa-\J	.	.	.	.	.	.	.	.	8a-/	ten	.
.	.	.	(>8gg-\L	(>8ggg-\L	.	.	.	.	.	.	.	.	8gg-\	zło-	.
.	8e- 8c 8G-\	.	16ff\L	16fff\L	.	.	.	.	.	.	.	.	(>16ff\LL	-ta	.
.	.	.	16ee-\JJ)	16eee-\JJ)	>	.	.	.	.	.	.	.	16ee-\JJ)	.	.
=16	=16	=16	=16	=16	=16	=16	=16	=16	=16	=16	=16	=16	=16	=16	=16
!	!	!	!	!	!	!	!	!	!	!	!	!	!	!	!LO:HP:b
(<8AAnL 8AAAn/	8f 8e- 8c 8F\	>	(>8ff\	(>8fff\	.	2r	.	2r	.	2r	.	.	(>8ff\	trzos!”	>
8BB-J 8BBB-/)	4f 4d- 4B- 4F\	.	4dd-\)	4ddd- 4aa-\)	]	.	.	.	.	.	.	.	4dd-\)	.	]
4BB- 4BBB-/	.	.	.	.	.	.	.	.	.	.	.	.	.	.	.
.	8f 8d- 8B-\	]	8r	8r	.	.	.	.	.	.	.	.	8r	.	.
=17	=17	=17	=17	=17	=17	=17	=17	=17	=17	=17	=17	=17	=17	=17	=17
*	*	*	*	*	*	*	*	*	*	*^	*	*	*	*	*
!	!	!	!	!	!	!	!LO:DY:a:rj	!	!LO:DY:a:rj	!	!	!	!LO:DY:a:rj	!	!	!
4EE-/	4g- 4d- 4B-\	p	(>8b-\L	(>8bb-\L	p	8E-\	p	8d-\	p	8b-/	8g-\	Weź	p	2r	.	.
.	.	.	8ff\J	8fff\J	.	8E-\	.	8d-\	.	8ff/	8g-\	ten	.	.	.	.
4AA- 4AAA-/	8g-L 8c 8A-\	.	8ee-\L	8eee-\L	.	8A-\	.	8c\	.	8ee-/	8g-\	zło-	.	.	.	.
.	8g-J 8c 8A-\	.	16cc\L	16ccc\L	.	8A-\	.	8c\	.	(<16cc/LL	8g-\	-ta	.	.	.	.
.	.	.	16b-\JJ)	16bb-\JJ)	.	.	.	.	.	16b-/JJ)	.	.	.	.	.	.
!!LO:PB:g=original
=18	=18	=18	=18	=18	=18	=18	=18	=18	=18	=18	=18	=18	=18	=18	=18	=18
[>4AA- [<4DD-/	8e-L 8c 8A-\	.	(>8cc\	(>8ccc\	.	(>8A-\	.	(>8e-\	.	(>8cc/	(>8g-\	trzos!”	.	2r	.	.
.	[>8fJ [>8d- [<8A-\	.	4dd-\)	4ddd-\)	.	4D-\)	.	4d-\)	.	4dd-/)	4f\)	.	.	.	.	.
8AA-] 8DD-/]	16f]LL 16d-] 16A-\]	.	.	.	.	.	.	.	.	.	.	.	.	.	.	.
.	(>16c\	.	.	.	.	.	.	.	.	.	.	.	.	.	.	.
8r	16d-\	.	8r	8r	.	8r	.	8r	.	8r	8rcyy	.	.	.	.	.
.	16B-\JJ)	.	.	.	.	.	.	.	.	.	.	.	.	.	.	.
*	*	*	*	*	*	*	*	*	*	*v	*v	*	*	*	*	*
=19	=19	=19	=19	=19	=19	=19	=19	=19	=19	=19	=19	=19	=19	=19	=19
!	!	!	!	!	!	!	!	!	!	!	!	!	!	!	!LO:DY:a:rj
2AA- 2AAA-/	16g-\LL	.	(>8b-\L	(>8bb-\L	<	2r	.	2r	.	2r	.	.	8b-\	Rze-	p
.	(>16d-\	.	.	.	.	.	.	.	.	.	.	.	.	.	.
!	!	!	!	!	!	!	!	!	!	!	!	!	!	!	!LO:HP:a
.	16e-\	.	8cc\	8ccc\	.	.	.	.	.	.	.	.	8cc\	-cze	<
.	16c\JJ	.	.	.	.	.	.	.	.	.	.	.	.	.	.
.	16g-\LL	.	8ee-\	8eee-\	.	.	.	.	.	.	.	.	8ee-\	dru-	.
.	16B-\	.	.	.	.	.	.	.	.	.	.	.	.	.	.
.	16a-\	.	8ff\J)	8fff\J)	[	.	.	.	.	.	.	.	8ff\	-gi	[
.	16c\JJ	.	.	.	.	.	.	.	.	.	.	.	.	.	.
=20	=20	=20	=20	=20	=20	=20	=20	=20	=20	=20	=20	=20	=20	=20	=20
(<4D- 4DD-/	16g-\LL	.	(>16ee-\LL	(>16eee-\LL	.	2r	.	2r	.	2r	.	.	16ee-\	do	.
.	16e-\	.	16cc\JJ	16ccc\JJ	.	.	.	.	.	.	.	.	16cc\	swej	.
.	16f\	.	4dd-\	4ddd-\	.	.	.	.	.	.	.	.	4dd-\	mi-	.
.	16B-\JJ	.	.	.	.	.	.	.	.	.	.	.	.	.	.
4F 4FF/)	16A-\LL	.	.	.	.	.	.	.	.	.	.	.	.	.	.
.	16f\	.	.	.	.	.	.	.	.	.	.	.	.	.	.
.	16e-\	.	8a-/)	8aa-\)	.	.	.	.	.	.	.	.	8a-/	-łej,	.
.	16d-\JJ)	.	.	.	.	.	.	.	.	.	.	.	.	.	.
=21	=21	=21	=21	=21	=21	=21	=21	=21	=21	=21	=21	=21	=21	=21	=21
(<8E- 8EE-/	(>16g-\LL	.	(>16b-\LL	(>16bb-\LL	.	2r	.	2r	.	2r	.	.	16b-\	Do	.
.	16B-\	.	16dd-\J	16ddd-\J	.	.	.	.	.	.	.	.	16dd-\	swej	.
4AA- 4AAA-/)	16g-\	.	[>8cc\J	[>8ccc\J	.	.	.	.	.	.	.	.	[>8cc\	mi-	.
.	16e-\JJ	.	.	.	.	.	.	.	.	.	.	.	.	.	.
.	16G-\LL	.	16cc/LL]	16ccc\LL]	.	.	.	.	.	.	.	.	16cc\]	.	.
.	16B-\	.	16g-/	16gg-\	.	.	.	.	.	.	.	.	16g-/	-łej	.
8AA- 8AAA-/	16A-\	.	16f/	16ff\	.	.	.	.	.	.	.	.	16f/	do	.
!	!	!	!	!	!	!	!	!	!	!	!	!	!	!	!LO:HP:b
.	16G-\JJ	.	16e-/JJ	16ee-\JJ	>	.	.	.	.	.	.	.	16e-/	swej	>
=22	=22	=22	=22	=22	=22	=22	=22	=22	=22	=22	=22	=22	=22	=22	=22
(<4AA- 4DD-/	16F\LL	.	8b-\	8bb-\	.	2r	.	2r	.	2r	.	.	8b-/	mi-	.
.	16A-\	.	.	.	.	.	.	.	.	.	.	.	.	.	.
.	16d-\	.	4a-/)	4aa-\)	]	.	.	.	.	.	.	.	4a-/	-łej:	]
.	16B-\JJ	.	.	.	.	.	.	.	.	.	.	.	.	.	.
4FF/)	16A-\LL	.	.	.	.	.	.	.	.	.	.	.	.	.	.
.	16B-\J	.	.	.	.	.	.	.	.	.	.	.	.	.	.
.	8A-\J)	.	(<16d-/LL	(>16dd-\LL	.	.	.	.	.	.	.	.	8r	.	.
.	.	.	16e-/JJ)	16ee-\JJ)	.	.	.	.	.	.	.	.	.	.	.
!!LO:LB:g=original
=23	=23	=23	=23	=23	=23	=23	=23	=23	=23	=23	=23	=23	=23	=23	=23
2EEn/	(>8c#XL 8An\	.	(<16en/LL	(>16eenLL 16cc#X\	.	2r	.	2r	.	2r	.	.	8.an/	„Za	.
.	.	.	16f#X/J	16ff#X\J	.	.	.	.	.	.	.	.	.	.	.
.	8En\J	.	8e/J)	8ee\J)	.	.	.	.	.	.	.	.	.	.	.
.	.	.	.	.	.	.	.	.	.	.	.	.	16a/	ten	.
.	8dnL 8G#X\	.	(<8g#X/L	(>8gg#XL 8ddn\	.	.	.	.	.	.	.	.	8bn\	kwia-	.
.	8E\J)	.	16anL 16f#/	16aanL 16ff#\	.	.	.	.	.	.	.	.	8ddn\	-tek,	.
.	.	.	16bnJJ 16g#/)	16bbnJJ 16gg#\)	.	.	.	.	.	.	.	.	.	.	.
=24	=24	=24	=24	=24	=24	=24	=24	=24	=24	=24	=24	=24	=24	=24	=24
*	*	*	*	*8va	*	*	*	*	*	*	*	*	*	*	*
(<4AAn/	(>16c#XLL 16An\	.	(>8cc#XL 8an\	(>8ccc#XL 8aan\	.	2r	.	2r	.	2r	.	.	8cc#X\	coś	.
.	16F#X\	<	.	.	.	.	.	.	.	.	.	.	.	.	.
!	!	!	!	!	!	!	!	!	!	!	!	!	!	!	!LO:HP:a
.	16En\	.	8ff#X\J)	8fff#X\J)	<	.	.	.	.	.	.	.	8cc#\	mi	<
.	16c#\JJ	.	.	.	.	.	.	.	.	.	.	.	.	.	.
4EEn/)	16dn\LL	.	(>8.eenL 8.g#X^>\	(>8.eeenL 8.gg#X^>\	.	.	.	.	.	.	.	.	8.een\	da-	.
.	16G#X\	.	.	.	.	.	.	.	.	.	.	.	.	.	.
.	16E\	.	.	.	.	.	.	.	.	.	.	.	.	.	.
.	16G#\JJ	.	16ddn\Jk)	16dddn\Jk)	.	.	.	.	.	.	.	.	16ddn\	-ła,	[
=25	=25	=25	=25	=25	=25	=25	=25	=25	=25	=25	=25	=25	=25	=25	=25
!	!	!	!	!	!LO:DY:rj	!	!	!	!	!	!	!	!	!	!LO:DY:a:rj
2AA-X 2AAA-X/	16Fn\LL	mf	(>8.dd-X\L	(>8.ddd-X\L	mf	2r	.	2r	.	2r	.	.	8.dd-X\	Weź	f
.	16A-X\J	.	.	.	.	.	.	.	.	.	.	.	.	.	.
.	8d-X\J)	.	.	.	.	.	.	.	.	.	.	.	.	.	.
.	.	.	16a-X\Jk	16aa-X\Jk	.	.	.	.	.	.	.	.	16a-X/	ko-	.
.	(>8cnL 8G-\	.	16gg-\LL	16ggg-\LL	.	.	.	.	.	.	.	.	(>16gg-\LL	-ra-	.
.	.	.	16ee-X\	16eee-X\	.	.	.	.	.	.	.	.	16ee-X\JJ)	.	.
.	8e-XJ 8c 8G-\)	.	16dd-\	16ddd-\	.	.	.	.	.	.	.	.	(>16dd-\LL	-li	.
.	.	.	16ccn\JJ)	16cccn\JJ)	.	.	.	.	.	.	.	.	16ccn\JJ)	.	.
=26	=26	=26	=26	=26	=26	=26	=26	=26	=26	=26	=26	=26	=26	=26	=26
(<4D- 4DD-/	8r	.	(>8dd-\	(>8ddd-\	.	2r	.	2r	.	2r	.	.	(>8dd-\	sznur!”	.
.	4f 4d- 4F\	>	4ff\)	4fff\)	.	.	.	.	.	.	.	.	4ff\)	.	.
8BB-L 8BBB-/	.	.	.	.	.	.	.	.	.	.	.	.	.	.	.
*	*	*	*	*X8va	*	*	*	*	*	*	*	*	*	*	*
8AA-J 8AAA-/)	8d- 8B- 8F\	]	8r	8r	.	.	.	.	.	.	.	.	8r	.	.
=27	=27	=27	=27	=27	=27	=27	=27	=27	=27	=27	=27	=27	=27	=27	=27
*	*	*	*	*	*	*	*	*	*	*^	*	*	*	*	*
!	!	!	!	!	!LO:DY:rj	!	!LO:DY:a:rj	!	!LO:DY:a:rj	!	!	!	!LO:DY:a:rj	!	!	!
(<4GG- 4GGG-/	4d- 4B- 4G-\	p	8.dd-L 8.e-/	(>8.ddd-\L	p	8.G-\	p	8.B-/	p	8.dd-/	8.e-\	Weź	p	2r	.	.
.	.	.	16e-/Jk	16ee-\Jk)	.	16G-\	.	16B-/	.	16e-/	16d-\	ko-	.	.	.	.
4BB- 4BBB-/)	8d-L 8G-\	.	(<16f/LL	(>16ff\LL	.	8BB-/	.	8G-/	.	(<16f/LL	8d-\	-ra-	.	.	.	.
.	.	.	16g-/	16gg-\	.	.	.	.	.	16g-/JJ)	.	.	.	.	.	.
.	8d-J 8G-\	.	16a-/	16aa-\	.	8BB-/	.	8G-/	.	(<16a-/LL	8d-\	-li	.	.	.	.
.	.	.	16b-/JJ)	16bb-\JJ)	.	.	.	.	.	16b-/JJ)	.	.	.	.	.	.
!!LO:PB:g=original
=28	=28	=28	=28	=28	=28	=28	=28	=28	=28	=28	=28	=28	=28	=28	=28	=28
(<8AA- 8AAA-/	(>8c 8A- 8G-\	.	(<8a- 8g-/	(>8cc\	.	(<8AA-/	.	(<8G-/	.	(>8c/	2A-\	szur!”	.	2r	.	.
!	!	!	!	!	!	!	!	!	!	!	!	!	!LO:HP:b	!	!	!
4.D- 4.DD-/)	4d- 4A- 4F\)	.	4a- 4f/)	4dd-\)	.	(>4.D-\)	.	[<4.F/)	.	[>4.d-/)	.	.	<	.	.	.
.	8d- 8A- 8F\	.	8r	8r	.	.	.	.	.	.	.	.	.	.	.	.
=29	=29	=29	=29	=29	=29	=29	=29	=29	=29	=29	=29	=29	=29	=29	=29	=29
2C-X 2CC-X/	8r	.	8r	8r	.	2F\	.	(>2F/]	.	(>2d-/]	(<2d-\	.	.	2r	.	.
.	4d- 4A- 4F\	<	(<16f/LL	(>16dd-\LL	<	.	.	.	.	.	.	.	.	.	.	.
.	.	.	16a-/JJ	16ee-\JJ	.	.	.	.	.	.	.	.	.	.	.	.
.	.	.	16f/LL	16dd-\LL	.	.	.	.	.	.	.	.	.	.	.	.
.	.	.	16a-/J	16ff\J	.	.	.	.	.	.	.	.	.	.	.	.
.	8d- 8A- 8F\	[[	8f/J)	8dd-\J)	[	.	.	.	.	.	.	.	.	.	.	.
=30	=30	=30	=30	=30	=30	=30	=30	=30	=30	=30	=30	=30	=30	=30	=30	=30
2BB- 2BBB-/	8r	.	8r	8r	.	2E-\	.	2G-/	.	2e-/	2B-\	.	.	2r	.	.
.	4e- 4B- 4G- 4E-\	.	(<16g-/LL	(>16ee-\LL	.	.	.	.	.	.	.	.	.	.	.	.
.	.	.	16b-/JJ	16ff\JJ	.	.	.	.	.	.	.	.	.	.	.	.
.	.	.	16g-/LL	16ee-\LL	.	.	.	.	.	.	.	.	.	.	.	.
.	.	.	16b-/J	16gg-\J	.	.	.	.	.	.	.	.	.	.	.	.
.	8e- 8B- 8G- 8E-\	.	8g-/J)	8ee-\J)	.	.	.	.	.	.	.	.	.	.	.	.
=31	=31	=31	=31	=31	=31	=31	=31	=31	=31	=31	=31	=31	=31	=31	=31	=31
2AA- 2AAA-/	8r	.	8r	8r	.	[>2D-\	.	[>2c-X\	.	[>2f/	[<2d-\	.	.	2r	.	.
.	4f 4d- 4c-X 4F\	>	(>16cc-X\LL	(>16ff\LL	>	.	.	.	.	.	.	.	.	.	.	.
.	.	.	16dd-\JJ	16gg-\JJ	.	.	.	.	.	.	.	.	.	.	.	.
.	.	.	16cc-\LL	16ff\LL	.	.	.	.	.	.	.	.	.	.	.	.
.	.	.	16ee-\	16ccc-X\	.	.	.	.	.	.	.	.	.	.	.	.
.	8f 8d- 8c- 8F\	.	16cc-\	16ff\	.	.	.	.	.	.	.	.	.	.	.	.
.	.	.	16ee-\JJ	16bb-\JJ	.	.	.	.	.	.	.	.	.	.	.	.
=32	=32	=32	=32	=32	=32	=32	=32	=32	=32	=32	=32	=32	=32	=32	=32	=32
4D- 4DD-/	4f 4d- 4c-X 4F\	]	16cc-X\LL	16ff\LL	.	2D-\]	.	2c-\]	.	2f/]	2d-\_<	.	.	2r	.	.
.	.	.	16dd-\)	16aa-\	.	.	.	.	.	.	.	.	.	.	.	.
.	.	.	16cc-\JJ	16ff\	.	.	.	.	.	.	.	.	.	.	.	.
.	.	.	16r	16gg-\JJ	.	.	.	.	.	.	.	.	.	.	.	.
4r	4r	.	16r	16aa-\LL	.	.	.	.	.	.	.	.	.	.	.	.
.	.	.	(>16b-\LL	16bb-\	.	.	.	.	.	.	.	.	.	.	.	.
.	.	.	16cc-\	16ccc-X\	.	.	.	.	.	.	.	.	.	.	.	.
.	.	.	16dd-\JJ)	16eee-\JJ)	]	.	.	.	.	.	.	.	.	.	.	.
=33	=33	=33	=33	=33	=33	=33	=33	=33	=33	=33	=33	=33	=33	=33	=33	=33
!	!	!	!	!	!LO:DY:rj	!	!	!	!	!	!	!	!	!	!	!
2D- 2GG-/	8r	p	(>16dd-\LL	(>16ddd-\LL	p	4G-\)	.	4B-\)	.	4g-/)	4d-\])	.	[	8r	.	.
.	.	.	16cc-\JJ	16ccc-X\JJ	.	.	.	.	.	.	.	.	.	.	.	.
!	!	!	!	!	!	!	!	!	!	!	!	!	!	!	!	!LO:DY:a:rj
.	(>16d-LL 16G-\	.	4b-\	4bb-\	.	.	.	.	.	.	.	.	.	4b-\	Rze-	p
.	16e-JJ 16B-\	.	.	.	.	.	.	.	.	.	.	.	.	.	.	.
.	16d-LL 16G-\	.	.	.	.	4r	.	4r	.	4r	4rcyy	.	.	.	.	.
.	16e-J 16B-\	.	.	.	.	.	.	.	.	.	.	.	.	.	.	.
.	8d-J 8G-\)	.	8ff\)	8fff\)	.	.	.	.	.	.	.	.	.	8b-\	-cze	.
*	*	*	*	*	*	*	*	*	*	*v	*v	*	*	*	*	*
!!LO:LB:g=original
=34	=34	=34	=34	=34	=34	=34	=34	=34	=34	=34	=34	=34	=34	=34	=34
2D- 2GG-/	8r	.	(>8ee-\	(>8eee-\	.	2r	.	2r	.	2r	.	.	8.g-/	trze-	.
.	(>16d-LL 16G-\	.	4dd-\	4ddd-\	.	.	.	.	.	.	.	.	.	.	.
.	16e-JJ 16B-\	.	.	.	.	.	.	.	.	.	.	.	16a-/	-ci	.
.	16d-LL 16G-\	.	.	.	.	.	.	.	.	.	.	.	8b-\	do	.
.	16e-J 16B-\	.	.	.	.	.	.	.	.	.	.	.	.	.	.
.	8d-J 8G-\)	.	8b-\)	8bb-\)	.	.	.	.	.	.	.	.	8dd-\	swej	.
=35	=35	=35	=35	=35	=35	=35	=35	=35	=35	=35	=35	=35	=35	=35	=35
2D- 2GG-/	8r	.	(>16cc-X\LL	(>16ccc-X\LL	.	2r	.	2r	.	2r	.	.	8.cc-X\	lu-	.
.	.	.	16dd-\JJ	16ddd-\JJ	.	.	.	.	.	.	.	.	.	.	.
.	(>16d-LL 16F\	.	4ee-\	4eee-\	.	.	.	.	.	.	.	.	.	.	.
.	16fJJ 16A-\	.	.	.	.	.	.	.	.	.	.	.	16b-\	-bej,	.
.	16d-LL 16F\	.	.	.	.	.	.	.	.	.	.	.	8a-/	do	.
.	16e-J 16c-X\	.	.	.	.	.	.	.	.	.	.	.	.	.	.
.	8d-J 8F\)	.	16a-\LL	16aa-\LL	.	.	.	.	.	.	.	.	8ee-\	swej	.
.	.	.	16cc-\JJ)	16ccc-\JJ)	.	.	.	.	.	.	.	.	.	.	.
=36	=36	=36	=36	=36	=36	=36	=36	=36	=36	=36	=36	=36	=36	=36	=36
4D- 4GG-/	8r	.	(8b-\	(>8bb-\	.	2r	.	2r	.	2r	.	.	(>16dd-\LL	lu-	.
.	.	.	.	.	.	.	.	.	.	.	.	.	16cc-X\JJ)	.	.
.	(>16d-LL 16G-\	.	4g-/)	4gg-\)	<	.	.	.	.	.	.	.	4b-\	-bej:	.
.	16e-JJ 16B-\	.	.	.	.	.	.	.	.	.	.	.	.	.	.
4r	8B- 8G-\)	.	.	.	.	.	.	.	.	.	.	.	.	.	.
!	!	!	!LO:TUP:b:problem=klamra łukowa	!LO:TUP:a:problem=klamra łukowa	!	!	!	!	!	!	!	!	!	!	!
.	8r	.	24a-/LL	24aa-\LL	.	.	.	.	.	.	.	.	8r	.	.
.	.	.	24b-/	24bb-\	.	.	.	.	.	.	.	.	.	.	.
.	.	.	24cc/JJ	24ccc\JJ	[[	.	.	.	.	.	.	.	.	.	.
=37	=37	=37	=37	=37	=37	=37	=37	=37	=37	=37	=37	=37	=37	=37	=37
!	!	!	!	!	!	!	!	!	!	!	!	!	!	!	!LO:DY:a:rj
4E- 4EE-^^>/	4g- 4d- 4B-^^>\	mf	(>8.gg-^>\L	(>8.ggg-^>\L	mf	2r	.	2r	.	2r	.	.	8.gg-\	„Za	f
.	.	.	16b-\Jk)	16bb-\Jk)	.	.	.	.	.	.	.	.	16b-\	ten	.
.	.	.	(<8qdd-/	(<8qddd-/	.	.	.	.	.	.	.	.	(<8qdd-/	.	.
4AA- 4AAA-/	8r	.	(>8ccn\L)	(>8cccn\L)	.	.	.	.	.	.	.	.	8ccn\)	ca-	.
.	8e- 8B- 8G-\	.	8b-\J)	8bb-\J)	.	.	.	.	.	.	.	.	8b-\	-łus	.
=38	=38	=38	=38	=38	=38	=38	=38	=38	=38	=38	=38	=38	=38	=38	=38
4FF 4FFF/	8r	.	(>8a-\L	(>8aa-\L	.	2r	.	2r	.	2r	.	.	8a-/	coś	.
.	8d- 8A- 8D-\	.	8dd-\J	8ddd-\J	.	.	.	.	.	.	.	.	8dd-\	mi	.
4D- 4DD-/	8r	.	8ff\L	8fff\L	.	.	.	.	.	.	.	.	8ff\	da-	.
.	8d- 8A- 8F\	.	16ee-\L	16eee-\L	.	.	.	.	.	.	.	.	(>16ee-\LL	-ła	.
.	.	.	16dd-\JJ)	16ddd-\JJ)	.	.	.	.	.	.	.	.	16dd-\JJ)	.	.
!!LO:PB:g=original
=39	=39	=39	=39	=39	=39	=39	=39	=39	=39	=39	=39	=39	=39	=39	=39
4C 4CC/	8r	.	(>8.ee-\L	(>8.eee-\L	.	2r	.	2r	.	2r	.	.	8.ee-\	Weź	.
.	8e- 8B- 8G-\	<	.	.	.	.	.	.	.	.	.	.	.	.	.
.	.	.	16b-\Jk)	16bb-\Jk)	.	.	.	.	.	.	.	.	16b-\	sa-	.
*	*	*	*	*8va	*	*	*	*	*	*	*	*	*	*	*
!	!	!	!	!	!	!	!	!	!	!	!	!	!	!	!LO:HP:a
4AA- 4AAA-/	8r	.	(>16cc\LL	(>16ccc\LL	<	.	.	.	.	.	.	.	(16cc\LL	-me-	<
.	.	.	16ee-\	16eee-\	.	.	.	.	.	.	.	.	16ee-\JJ)	.	.
.	8e- 8c 8G- 8E-\	[	16ff\	16fff\	.	.	.	.	.	.	.	.	(16ff\LL	-go	.
.	.	.	16gg-\JJ	16ggg-\JJ	[	.	.	.	.	.	.	.	16gg-\JJ)	.	[[
=40	=40	=40	=40	=40	=40	=40	=40	=40	=40	=40	=40	=40	=40	=40	=40
4FF-X 4FFF-X/	8f-X 8c-X 8A- 8F-X\	ff	[>4aa-\)	[>4aaa-\)	ff	2r	.	2r	.	2r	.	.	[>4aa-\	mnie!”	.
.	4e- 4c- 4A- 4F-^>\	.	.	.	.	.	.	.	.	.	.	.	.	.	.
4AA- 4AAA-/	.	.	16aa-\LL]	16aaa-\LL]	.	.	.	.	.	.	.	.	8aa-\]	.	.
.	.	.	(>16gg-\	(>16ggg-\	.	.	.	.	.	.	.	.	.	.	.
.	8f- 8c- 8F-\	.	16ff-X\	16fff-X\	.	.	.	.	.	.	.	.	8r	.	.
.	.	.	16dd-\JJ)	16ddd-\JJ)	.	.	.	.	.	.	.	.	.	.	.
=41	=41	=41	=41	=41	=41	=41	=41	=41	=41	=41	=41	=41	=41	=41	=41
*	*	*	*	*	*	*	*	*	*	*^	*	*	*	*	*
!	!	!	!	!	!	!	!LO:DY:a:rj	!	!LO:DY:a:rj	!	!	!	!LO:DY:a:rj	!	!	!
8.C-XL 8.CC-X/	8.e-L 8.B-- 8.G-\	.	8.cc-X\L	8.ccc-X\L	.	8.C-X/	f	8.B--\	f	8.cc-X/	8.e-\	Za	f	2r	.	.
16B--Jk 16BB--/	16e-Jk 16c-X\	.	16cc-\Jk	16ccc-Jk 16ee-\	.	16B--\	.	16c-X\	.	16cc-/	16e-\	ten	.	.	.	.
(<8A-L 8AA-'/	(>8f-XL 8c-'\	.	(>8dd-'\L	(<8ddd-L 8ff-X'/	.	8A-\	.	8c-\	.	8dd-/	8f-X\	ca-	.	.	.	.
8G-J 8GG-'/)	8g-J 8c-'\)	.	8ee-'\J)	8eee-J 8gg-'/)	.	8G-\	.	8c-\	.	8ee-/	8g-\	-łus,	.	.	.	.
=42	=42	=42	=42	=42	=42	=42	=42	=42	=42	=42	=42	=42	=42	=42	=42	=42
4.F-X 4.FF-X/	4.a- 4.c-X\	.	(>8.ff-X\L	(>8.fff-XL 8.aa-\	.	8.F-X\	.	8.c-X\	.	8.ff-X/	8.a-\	coś	.	2r	.	.
.	.	.	16ee-\Jk)	16eee-\Jk)	.	16F-\	.	16c-\	.	16ee-/	16a-\	mi	.	.	.	.
.	.	.	(>16gg-\LL	(>16ggg-\LL	.	8F-\	.	8c-\	.	(<16gg-/LL	8a-\	da-	.	.	.	.
.	.	.	16ff-\	16fff-\	.	.	.	.	.	16ff-/JJ)	.	.	.	.	.	.
8A- 8AA-/	8f-X 8c-\	.	16cc-X\	16ccc-X\	.	8A-\	.	8c-\	.	(<16cc-X/LL	8f-X\	-ła,	.	.	.	.
.	.	.	16dd-\JJ)	16ddd-\JJ)	.	.	.	.	.	16dd-/JJ)	.	.	.	.	.	.
=43	=43	=43	=43	=43	=43	=43	=43	=43	=43	=43	=43	=43	=43	=43	=43	=43
!	!	!	!	!	!	!	!	!	!	!	!	!	!	!	!	!LO:DY:a:rj
4.AA- 4.AAA-^>/	8.e-L 8.c 8.G-^>\	.	8.ee-L 8.g-^</	4.eee- 4.gg-^>\	.	8.A-\	.	8.cn\	.	8.ee-/	8.g-\	Weź	.	4.ee-\	Weź	f
.	16d-K 16G-\	.	16dd-Jk 16g-/	.	.	16A-\	.	16d-\	.	16dd-/	16g-\	sa-	.	.	.	.
.	8e- 8G-\	.	8ccnL 8g-/	.	.	8A-\	.	8e-\	.	8ccn/	8g-\	-me-	.	.	.	.
8AA- 8AAA-/	8d-\J	.	8b-J 8fn/	8fffn 8ffn\	.	8A-\	.	8d-\	.	8b-/	8fn\	-go	.	8ff\	sa-	.
!!LO:LB:g=original
=44	=44	=44	=44	=44	=44	=44	=44	=44	=44	=44	=44	=44	=44	=44	=44	=44
!	!LO:TX:b:i:t=riten	!	!	!LO:TX:b:i:t=riten	!	!LO:TX:b:i:t=ritenuto	!	!LO:TX:b:i:t=ritenuto	!	!	!	!	!	!LO:TX:b:i:t=ritenuto	!	!
2AA- 2AAA-/	4c^^>\	.	4a- 4g-^^>/	4.aaa- 4.ccc 4.aa-^^>\	.	2A-\	.	(>4c\	.	(>4a-/	2g-\	weź	.	4.aa-\	-me-	.
!	!	!	!	!	!	!	!	!	!	!LO:TX:b:i:t=riten	!	!	!	!	!	!
.	4c 4A- 4G- 4E-^^>\	.	4cc 4g- 4e-^^>/	.	.	.	.	4e-\)	.	4cc/)	.	.	.	.	.	.
.	.	.	.	8ccc 8gg- 8ee-^^>/	.	.	.	.	.	.	.	.	.	8cc\	-go	.
=45	=45	=45	=45	=45	=45	=45	=45	=45	=45	=45	=45	=45	=45	=45	=45	=45
2AA- 2DD-^^>/	8r	.	4.dd- 4.a- 4.f^^>/	4.ddd- 4.aa- 4.ff^^/	.	[>4D-\	.	[>4d-\	.	[>4dd-/	[>4f\	mnie!”	.	[>4dd-\	mnie!”	.
.	4d- 4A- 4F\	.	.	.	.	.	.	.	.	.	.	.	.	.	.	.
.	.	.	.	.	.	8D-\]	.	8d-\]	.	8dd-/]	8f\]	.	.	8dd-\]	.	.
*	*	*	*	*	*	*	*	*	*	*v	*v	*	*	*	*	*
*	*	*	*	*X8va	*	*	*	*	*	*	*	*	*	*	*
*	*	*	*	*	*	*	*	*	*	*^	*	*	*	*	*
.	8d- 8A- 8F\	.	8r	8r	.	8r	.	8r	.	8r	8rcyy	.	.	8r	.	.
*	*	*	*	*	*	*	*	*	*	*v	*v	*	*	*	*	*
=46	=46	=46	=46	=46	=46	=46	=46	=46	=46	=46	=46	=46	=46	=46	=46
2AA- 2DD-^^>/	8r	f	(>8b-\L	(>8bb-\L	f	2r	.	2r	.	2r	.	.	2r	.	.
!	!LO:TX:b:i:t=con forza	!	!	!LO:TX:b:i:t=con forza	!	!	!	!	!	!	!	!	!	!	!
.	4g- 4c 4A-^>\	.	8cc\	8ccc\	.	.	.	.	.	.	.	.	.	.	.
.	.	.	8ee-\	8eee-\	.	.	.	.	.	.	.	.	.	.	.
.	8g- 8c 8A-\	.	8ff\J)	8fff\J)	.	.	.	.	.	.	.	.	.	.	.
=47	=47	=47	=47	=47	=47	=47	=47	=47	=47	=47	=47	=47	=47	=47	=47
2AA- 2DD-^^>/	8r	.	(>16ee-\LL	(>16eee-\LL	.	2r	.	2r	.	2r	.	.	2r	.	.
.	.	.	16cc\JJ	16ccc\JJ	.	.	.	.	.	.	.	.	.	.	.
.	4f 4d- 4A-^>\	.	4dd-\	4ddd-\	.	.	.	.	.	.	.	.	.	.	.
.	8d- 8A- 8F\	.	8a-/)	8aa-\)	.	.	.	.	.	.	.	.	.	.	.
=48	=48	=48	=48	=48	=48	=48	=48	=48	=48	=48	=48	=48	=48	=48	=48
2AA- 2DD-^^>/	8r	.	(>16b-\LL	(>16bb-\LL	.	2r	.	2r	.	2r	.	.	2r	.	.
.	.	.	16dd-\J	16ddd-\J	.	.	.	.	.	.	.	.	.	.	.
.	4c 4G- 4E-^>\	.	[>8cc\J	[8ccc\J	.	.	.	.	.	.	.	.	.	.	.
.	.	.	16cc/LL]	16ccc\LL]	.	.	.	.	.	.	.	.	.	.	.
.	.	.	16g-/	16gg-\	.	.	.	.	.	.	.	.	.	.	.
.	8c 8G- 8E-\	.	16f/	16ff\	.	.	.	.	.	.	.	.	.	.	.
.	.	.	16e-/JJ)	16ee-\JJ)	.	.	.	.	.	.	.	.	.	.	.
=49	=49	=49	=49	=49	=49	=49	=49	=49	=49	=49	=49	=49	=49	=49	=49
2AA- 2DD-^^>/	8r	.	(>8b-\	(>8bb-\	.	2r	.	2r	.	2r	.	.	2r	.	.
.	4d- 4A- 4F^>\	.	4a-^>/)	4aa-^>\)	.	.	.	.	.	.	.	.	.	.	.
.	8d- 8G- 8E-\	.	8b-\	8bb-\	.	.	.	.	.	.	.	.	.	.	.
=50	=50	=50	=50	=50	=50	=50	=50	=50	=50	=50	=50	=50	=50	=50	=50
4.AA- 4.DD-^^>/	8r	.	(>8b-\	(>8bb-\	.	2r	.	2r	.	2r	.	.	2r	.	.
.	4d- 4A- 4F^>\	.	4a-^>/)	4aa-^>\)	.	.	.	.	.	.	.	.	.	.	.
8GG- 8GGG-/	8d- 8B- 8G-\	.	8b-\	8bb-\	.	.	.	.	.	.	.	.	.	.	.
!!LO:PB:g=original
=51	=51	=51	=51	=51	=51	=51	=51	=51	=51	=51	=51	=51	=51	=51	=51
*	*	*	*	*	*	*	*	*	*	*^	*	*	*	*	*
!	!	!	!	!	!	!	!LO:DY:a:rj	!	!LO:DY:a:rj	!	!	!	!LO:DY::rj	!	!	!LO:DY:a:rj
8.G-L 8.GG-/	8.d-L 8.B-\	ff	8.b-\L	8.bb-\L	ff	8.G-\	ff	8.d-\	ff	8.b-/	8.g-\	Weź	ff	8.b-\	Weź	ff
16G-Jk 16GG-/	16d-Jk 16B-\	.	16dd-Jk 16b-\	16fffJk 16ddd-\	.	16G-\	.	16d-\	.	16b-/	16g-\	sa-	.	16dd-\	sa-	.
*	*	*	*	*	*	*	*	*	*	*v	*v	*	*	*	*	*
*	*	*	*	*8va	*	*	*	*	*	*	*	*	*	*	*
*	*	*	*	*	*	*	*	*	*	*^	*	*	*	*	*
8G-L 8GG-^^>/	[>4d- [<4B-^^>\	.	[>4gg- [>4dd- [<4b-^^>\	[>4ggg- [>4ddd- [<4bb-^^>\	.	(>8G-\L	.	[>4d-\	.	[>4dd-/	[<4b-\	-me-	.	[>4gg-\	-me-	.
8FJ 8FF^^>/	.	.	.	.	.	8F\J	.	.	.	.	.	.	.	.	.	.
=52	=52	=52	=52	=52	=52	=52	=52	=52	=52	=52	=52	=52	=52	=52	=52	=52
8E-L 8EE-^^>/	4d-] 4B-\]	.	4gg-] 4dd-] 4b-\]	4ggg-] 4ddd-] 4bb-\]	.	8E-\L	.	4d-\]	.	4dd-/]	4b-\]	.	.	4gg-\]	.	.
8D-J 8DD-^^>/	.	.	.	.	.	8D-\J)	.	.	.	.	.	.	.	.	.	.
4C 4CC^^>/	4g- 4e- 4B- 4G-^^>\	.	4gg- 4ee- 4b-^^>\	4ggg- 4eee- 4bb-^^>\	.	4C/	.	4B-\	.	4ee-/	4b-\	-go	.	4gg-\	-go	.
=53	=53	=53	=53	=53	=53	=53	=53	=53	=53	=53	=53	=53	=53	=53	=53	=53
2D- 2DD-^^>/	2f 2d- 2A- 2F^^>\	.	2ff 2dd- 2a-^^\	2fff 2ddd- 2aa-^^\	.	[>2D-\	.	[>2d-\	.	[>2ff/	[<2a-\	mnie!	.	[>2ff\	mnie!	.
=54	=54	=54	=54	=54	=54	=54	=54	=54	=54	=54	=54	=54	=54	=54	=54	=54
2r	8a- 8f 8d-^^>\	.	8aa- 8ff 8dd-^^>\	8dddd- 8aaa- 8fff 8ddd-^^>\	.	2D-\_>	.	2d-\_>	.	2ff/_>	2a-\_<	.	.	2ff\_>	.	.
.	8r	.	8r	8r	.	.	.	.	.	.	.	.	.	.	.	.
.	8a- 8f 8d-^^>\	.	8aa- 8ff 8dd-^^>\	8dddd- 8aaa- 8fff 8ddd-^^>\	.	.	.	.	.	.	.	.	.	.	.	.
.	8r	.	8r	8r	.	.	.	.	.	.	.	.	.	.	.	.
=55	=55	=55	=55	=55	=55	=55	=55	=55	=55	=55	=55	=55	=55	=55	=55	=55
8D- 8AA- 8DD-/	8d- 8A- 8F\	sfz	8dd- 8a- 8f/	8ddd- 8aa- 8ff/	sfz	8D-\]	.	8d-\]	.	8ff/]	8a-\]	.	.	8ff\]	.	.
8r	8r	.	8r	8r	.	8r	.	8r	.	8rdd	8rd	.	.	8r	.	.
*	*	*	*	*	*	*	*	*	*	*v	*v	*	*	*	*	*
*	*	*	*	*X8va	*	*	*	*	*	*	*	*	*	*	*
*	*	*	*	*	*	*	*	*	*	*^	*	*	*	*	*
4r	4r	.	4r	4r	.	4r	.	4r	.	4rdd	4rf	.	.	4r	.	.
*	*	*	*	*	*	*	*	*	*	*v	*v	*	*	*	*	*
==	==	==	==	==	==	==	==	==	==	==	==	==	==	==	==
*-	*-	*-	*-	*-	*-	*-	*-	*-	*-	*-	*-	*-	*-	*-	*-
!!!system-decoration: {s1{(g1)}{(s5,s6)}{(s7,s8)}}
!!!RDF**dynam: < = "cresc", 'fontstyle=italic
!!!RDF**kern: > = above
!!!RDF**kern: < = below
!!!EED: Antoni Szymański
!!!EEV: 2021-05-30
!!!ENC: Mateusz Solarz
!!!END: 2021-05-11
